la/buysellads.svg

<svg xmlns="http://www.w3.org/2000/svg" viewBox="0 0 32 32" height="1em" width="1em">
  <path d="M 11.1875 6 L 10.96875 6.6875 L 5.0625 24.6875 L 4.625 26 L 11.96875 26 L 12.25 25.78125 L 18.125 21 L 19.28125 25.25 L 19.5 26 L 27.40625 26 L 26.9375 24.6875 L 20.875 6.6875 L 20.625 6 Z M 12.65625 8 L 19.1875 8 L 24.625 24 L 21 24 L 17.0625 9.46875 L 16.875 8.71875 L 15.15625 8.71875 L 14.9375 9.4375 L 12.28125 18.71875 L 11.90625 20 L 16.1875 20 L 11.28125 24 L 7.375 24 Z M 15.96875 13.09375 L 17.3125 18 L 14.5625 18 Z"/>
</svg>

<svg xmlns="http://www.w3.org/2000/svg" viewBox="0 0 32 32" height="1em" width="1em">
  <path d="m11.188 6-.22.688-5.905 18L4.625 26h7.344l.281-.219L18.125 21l1.156 4.25.219.75h7.906l-.468-1.313-6.063-18-.25-.687Zm1.468 2h6.531l5.438 16H21L17.062 9.469l-.187-.75h-1.719l-.219.719-2.656 9.28L11.906 20h4.281l-4.906 4H7.375Zm3.313 5.094L17.313 18h-2.75Z"/>
</svg>
